icons/glyphs/glyph-tweak.svg

<?xml version="1.0" encoding="UTF-8" standalone="no"?><svg height="22" viewBox="0 0 5.8208332 5.8208335" width="22" xmlns="http://www.w3.org/2000/svg"><sodipodi:namedview/><metadata><rdf:RDF><cc:Work><dc:format>image/svg+xml</dc:format><dc:type/><dc:title/></cc:Work></rdf:RDF></metadata><path d="m3.7439141.00007022c-.5825994.02999309-1.1662569.2402649-1.6079865.65037823-.3165821.29392342-.5594091.74573005-.6234395 1.21929885-.064454.4766999.089147 1.0101818.5888039 1.2840801.085395.046817.163961.059682.2520697.072478.090955.013209.1958033.021152.3020988.010262.029967-.00307.059508-.012292.089154-.019242.00535.052271.00364.1216835-.00449.1776675-.00372.025635-.010878.052703-.016676.071837-.00225.00742-.00415.012926-.00577.01796-.085716.1546513-.193196.2467917-.3226258.297609-.130499.051236-.2853216.06063-.4586001.037201-.3425961-.0463232-.7252964-.2538261-.9255383-.4695046-.31936773-.3439878-.49609709-.8186873-.52081569-1.2988322a.06568579.06568579 0 0 0 -.06862967-.0622156l-.35918324.019242a.06568579.06568579 0 0 0 -.06221566.0686296c.02999307.5825994.24026494 1.166257.65037825 1.6079863.29392365.3165817.74573051.5594086 1.21929881.6234396.4767003.0644546 1.0101814-.0891474 1.2840802-.588804.0468109-.0853942.0596827-.1639577.072478-.2520697.013208-.090955.021152-.1958039.010262-.3020987-.00312-.030517-.012752-.060738-.019884-.091079.050607-.00503.122295-.00181.1789503.00641.025855.00375.053226.01099.072478.016676.0072.00213.012308.00357.017316.00513.1545632.085678.2459408.1930544.2963263.3226238.050803.1306409.060003.285855.03656.4592413-.0463121.3425143-.254423.7252616-.4701451.9255441-.3440107.3193879-.8159614.4941649-1.2962645.5188915a.06568579.06568579 0 0 0 -.062216.06863l.019242.3611077a.06568579.06568579 0 0 0  .06863.062216c.5825998-.0299933 1.1662574-.2402657 1.6079863-.6503792.3167167-.2940492.5568747-.7459698.6208739-1.219299.064454-.4766998-.0891477-1.0101815-.5888037-1.28408-.0853958-.046818-.163963-.059681-.2520697-.072478-.0907746-.0131835-.1933527-.0211399-.2995333-.0102624-.030557.00313-.061188.01273-.09172.019883-.00502-.050631-.00181-.1223051.00641-.1789502.00376-.025856.010991-.053227.016676-.072478.00213-.0072.00357-.012309.00513-.017318.085677-.1545643.1930545-.245941.3226235-.2963262.1306413-.050802.2858547-.060003.4592413-.03656.3425201.046312.7252549.2544223.9255385.4701452.3193882.3440098.4941648.8159631.5188914 1.2962669a.06568579.06568579 0 0 0  .06863.062216l.3611132-.01924a.06568579.06568579 0 0 0  .062216-.06863c-.029999-.5826032-.2402655-1.1662586-.650379-1.6079878-.2940489-.3167169-.7459699-.5568749-1.219299-.6208739-.4767001-.064455-1.0101816.089148-1.28408.588804-.046818.085396-.059681.1639628-.072478.2520697-.013183.090774-.02114.1933525-.010262.2995331.00304.029655.012436.059866.019242.089796-.052273.00535-.121684.00364-.1776675-.00449-.025635-.00372-.052702-.010878-.071837-.016676-.00741-.00225-.012926-.00415-.017959-.00577-.1546502-.0857053-.2467919-.1931937-.2976092-.3226264-.0512371-.1305017-.0606301-.2853219-.0372012-.4586001.0463225-.3425962.2538252-.7252963.4695038-.9255382.3439881-.31936753.8186877-.49609715 1.2988324-.52081569a.06568579.06568579 0 0 0  .062216-.0686297l-.0192411-.35918322a.06568579.06568579 0 0 0 -.0686295-.06221567z" fill="#d0d0d0" fill-rule="evenodd"/></svg>

<?xml version="1.0" encoding="UTF-8" standalone="no"?>
<!-- Created with Inkscape (http://www.inkscape.org/) -->

<svg
   xmlns:dc="http://purl.org/dc/elements/1.1/"
   xmlns:cc="http://creativecommons.org/ns#"
   xmlns:rdf="http://www.w3.org/1999/02/22-rdf-syntax-ns#"
   xmlns:svg="http://www.w3.org/2000/svg"
   xmlns="http://www.w3.org/2000/svg"
   xmlns:sodipodi="http://sodipodi.sourceforge.net/DTD/sodipodi-0.dtd"
   xmlns:inkscape="http://www.inkscape.org/namespaces/inkscape"
   width="22"
   height="22"
   viewBox="0 0 5.8208332 5.8208335"
   version="1.1"
   id="svg8"
   inkscape:version="0.92+devel 15724 custom"
   sodipodi:docname="glyph-tweak.svg">
  <defs
     id="defs2" />
  <sodipodi:namedview
     id="base"
     pagecolor="#002466"
     bordercolor="#ffffff"
     borderopacity="0.37647059"
     inkscape:pageopacity="1"
     inkscape:pageshadow="2"
     inkscape:zoom="13.161829"
     inkscape:cx="11"
     inkscape:cy="11"
     inkscape:document-units="px"
     inkscape:current-layer="svg8"
     inkscape:document-rotation="0"
     showgrid="false"
     inkscape:showpageshadow="false"
     borderlayer="true"
     units="px"
     inkscape:window-width="1920"
     inkscape:window-height="1051"
     inkscape:window-x="0"
     inkscape:window-y="0"
     inkscape:window-maximized="1" />
  <metadata
     id="metadata5">
    <rdf:RDF>
      <cc:Work
         rdf:about="">
        <dc:format>image/svg+xml</dc:format>
        <dc:type
           rdf:resource="http://purl.org/dc/dcmitype/StillImage" />
        <dc:title></dc:title>
      </cc:Work>
    </rdf:RDF>
  </metadata>
  <path
     inkscape:connector-curvature="0"
     id="path4318"
     d="M 3.7439141,7.0221211e-5 C 3.1613147,0.03006331 2.5776572,0.24033512 2.1359276,0.65044845 1.8193455,0.94437187 1.5765185,1.3961785 1.5124881,1.8697473 c -0.064454,0.4766999 0.089147,1.0101818 0.5888039,1.2840801 0.085395,0.046817 0.163961,0.059682 0.2520697,0.072478 0.090955,0.013209 0.1958033,0.021152 0.3020988,0.010262 0.029967,-0.00307 0.059508,-0.012292 0.089154,-0.019242 0.00535,0.052271 0.00364,0.1216835 -0.00449,0.1776675 -0.00372,0.025635 -0.010878,0.052703 -0.016676,0.071837 -0.00225,0.00742 -0.00415,0.012926 -0.00577,0.01796 -0.085716,0.1546513 -0.193196,0.2467917 -0.3226258,0.297609 -0.130499,0.051236 -0.2853216,0.06063 -0.4586001,0.037201 C 1.5938565,3.7732767 1.2111562,3.5657738 1.0109143,3.3500953 0.69154657,3.0061075 0.51481721,2.531408 0.49009861,2.0512631 A 0.06568579,0.06568579 0 0 0 0.42146894,1.9890475 L 0.0622857,2.0082895 A 0.06568579,0.06568579 0 0 0 7.0037942e-5,2.0769191 C 0.03006311,2.6595185 0.24033498,3.2431761 0.65044829,3.6849054 0.94437194,4.0014871 1.3961788,4.244314 1.8697471,4.308345 2.3464474,4.3727996 2.8799285,4.2191976 3.1538273,3.719541 3.2006382,3.6341468 3.21351,3.5555833 3.2263053,3.4674713 c 0.013208,-0.090955 0.021152,-0.1958039 0.010262,-0.3020987 -0.00312,-0.030517 -0.012752,-0.060738 -0.019884,-0.091079 0.050607,-0.00503 0.122295,-0.00181 0.1789503,0.00641 0.025855,0.00375 0.053226,0.01099 0.072478,0.016676 0.0072,0.00213 0.012308,0.00357 0.017316,0.00513 0.1545632,0.085678 0.2459408,0.1930544 0.2963263,0.3226238 0.050803,0.1306409 0.060003,0.285855 0.03656,0.4592413 C 3.7720018,4.226889 3.5638909,4.6096363 3.3481688,4.8099188 3.0041581,5.1293067 2.5322074,5.3040837 2.0519043,5.3288103 a 0.06568579,0.06568579 0 0 0 -0.062216,0.06863 l 0.019242,0.3611077 a 0.06568579,0.06568579 0 0 0 0.06863,0.062216 C 2.6601601,5.7907707 3.2438177,5.5804983 3.6855466,5.1703848 4.0022633,4.8763356 4.2424213,4.424415 4.3064205,3.9510858 4.3708745,3.474386 4.2172728,2.9409043 3.7176168,2.6670058 3.632221,2.6201878 3.5536538,2.6073248 3.4655471,2.5945278 3.3747725,2.5813443 3.2721944,2.5733879 3.1660138,2.5842654 c -0.030557,0.00313 -0.061188,0.01273 -0.09172,0.019883 -0.00502,-0.050631 -0.00181,-0.1223051 0.00641,-0.1789502 0.00376,-0.025856 0.010991,-0.053227 0.016676,-0.072478 0.00213,-0.0072 0.00357,-0.012309 0.00513,-0.017318 C 3.1881868,2.1808379 3.2955643,2.0894612 3.4251333,2.039076 3.5557746,1.988274 3.710988,1.979073 3.8843746,2.002516 4.2268947,2.048828 4.6096295,2.2569383 4.8099131,2.4726612 5.1293013,2.816671 5.3040779,3.2886243 5.3288045,3.7689281 a 0.06568579,0.06568579 0 0 0 0.06863,0.062216 l 0.3611132,-0.01924 a 0.06568579,0.06568579 0 0 0 0.062216,-0.06863 C 5.7907647,3.1606709 5.5804982,2.5770155 5.1703847,2.1352863 4.8763358,1.8185694 4.4244148,1.5784114 3.9510857,1.5144124 c -0.4767001,-0.064455 -1.0101816,0.089148 -1.28408,0.588804 -0.046818,0.085396 -0.059681,0.1639628 -0.072478,0.2520697 -0.013183,0.090774 -0.02114,0.1933525 -0.010262,0.2995331 0.00304,0.029655 0.012436,0.059866 0.019242,0.089796 -0.052273,0.00535 -0.121684,0.00364 -0.1776675,-0.00449 -0.025635,-0.00372 -0.052702,-0.010878 -0.071837,-0.016676 -0.00741,-0.00225 -0.012926,-0.00415 -0.017959,-0.00577 C 2.181394,2.6319739 2.0892523,2.5244855 2.038435,2.3950528 1.9871979,2.2645511 1.9778049,2.1097309 2.0012338,1.9364527 2.0475563,1.5938565 2.255059,1.2111564 2.4707376,1.0109145 2.8147257,0.69154697 3.2894253,0.51481735 3.76957,0.49009881 A 0.06568579,0.06568579 0 0 0 3.831786,0.42146911 L 3.8125449,0.06228589 A 0.06568579,0.06568579 0 0 0 3.7439154,7.0221211e-5 Z"
     style="color:#000000;font-style:normal;font-variant:normal;font-weight:normal;font-stretch:normal;font-size:medium;line-height:normal;font-family:sans-serif;font-variant-ligatures:normal;font-variant-position:normal;font-variant-caps:normal;font-variant-numeric:normal;font-variant-alternates:normal;font-variant-east-asian:normal;font-feature-settings:normal;text-indent:0;text-align:start;text-decoration:none;text-decoration-line:none;text-decoration-style:solid;text-decoration-color:#000000;letter-spacing:normal;word-spacing:normal;text-transform:none;writing-mode:lr-tb;direction:ltr;text-orientation:mixed;dominant-baseline:auto;baseline-shift:baseline;text-anchor:start;white-space:normal;shape-padding:0;clip-rule:nonzero;display:inline;overflow:visible;visibility:visible;isolation:auto;mix-blend-mode:normal;color-interpolation:sRGB;color-interpolation-filters:linearRGB;solid-color:#000000;solid-opacity:1;vector-effect:none;fill:#d0d0d0;fill-opacity:1;fill-rule:evenodd;stroke:none;stroke-width:0.13135843;stroke-linecap:butt;stroke-linejoin:round;stroke-miterlimit:4;stroke-dasharray:none;stroke-dashoffset:0;stroke-opacity:1;color-rendering:auto;image-rendering:auto;shape-rendering:auto;text-rendering:auto;enable-background:accumulate"
     inkscape:label="#" />
</svg>
